assets/img/svg/instruction.svg

<svg width="38" height="50" viewBox="0 0 38 50" fill="none" xmlns="http://www.w3.org/2000/svg">
<path d="M4.79646 0.365234C2.70305 0.365234 1 2.05023 1 4.12125V45.4785C1 47.5495 2.70296 49.2345 4.79646 49.2345H33.2035C35.2969 49.2345 37 47.5495 37 45.4785V14.2419C37 13.9989 36.9052 13.7653 36.7352 13.5902L24.1845 0.653259C24.0059 0.469235 23.7594 0.365234 23.5017 0.365234H4.79646ZM4.79646 2.24474H21.8422V14.462C21.8422 14.9811 22.2664 15.4018 22.7895 15.4018H35.1053V45.4785C35.1053 46.5131 34.2524 47.355 33.2037 47.355H4.79646C3.74778 47.355 2.89466 46.5132 2.89466 45.4785V4.12125C2.89466 3.0866 3.74778 2.24474 4.79646 2.24474ZM23.7368 2.90262L34.0398 13.5223H23.7368V2.90262ZM18.6149 14.3905C18.3801 14.3876 18.117 14.4171 17.8228 14.4902C17.0806 14.6742 15.8865 15.3933 16.2274 18.1411C16.3781 19.3551 16.8262 20.9018 17.4904 22.5667C17.1333 23.6765 16.7357 24.837 16.3446 25.9779C15.9762 27.0526 15.5952 28.1637 15.256 29.2111C14.984 30.0514 14.7345 30.846 14.499 31.597C14.169 32.6496 13.8699 33.6032 13.5763 34.4669C8.51103 37.32 6.48768 39.791 6.36375 41.311C6.31333 41.9288 6.55662 42.4654 7.03126 42.7834C7.2693 42.943 7.61088 43.0777 8.08552 43.0777C8.56266 43.0777 9.17421 42.9413 9.94992 42.5567C12.684 41.2006 13.9747 38.958 15.1261 35.7627C16.0987 35.2349 17.2011 34.6829 18.4496 34.1112C20.4186 33.2099 22.0956 32.6532 23.5044 32.3261C25.1336 34.0234 26.8567 35.1377 28.4737 35.1377C30.2326 35.1377 31.4732 34.561 31.8774 33.5559C32.1753 32.8146 31.9478 31.9908 31.2685 31.3516C30.3038 30.4442 28.5876 29.9787 26.4394 30.0398C25.7261 30.0602 24.9719 30.1402 24.1841 30.2775C22.3988 28.1517 20.6653 25.1999 19.5006 22.4826C20.6941 18.662 21.1301 16.1654 20.042 14.9928C19.7701 14.6998 19.3196 14.3992 18.6149 14.3905ZM18.6009 16.2681C18.6328 16.2684 18.6494 16.2702 18.6501 16.2681C18.6841 16.3094 19.0298 16.8107 18.4077 19.397C18.2663 18.8642 18.1643 18.3646 18.1081 17.9114C17.9682 16.783 18.1692 16.3417 18.2823 16.3136C18.4433 16.2738 18.546 16.2681 18.6009 16.2681ZM18.6369 25.1205C19.6162 27.0887 20.8227 29.0685 22.1374 30.7432C20.7102 31.1386 19.204 31.6957 17.6558 32.4047C17.0709 32.6725 16.512 32.9384 15.9791 33.2019C16.0869 32.8614 16.1964 32.5124 16.3086 32.1553C16.5422 31.4098 16.7897 30.6206 17.0601 29.7864C17.3947 28.7541 17.7728 27.6505 18.1386 26.5832C18.3111 26.0803 18.4774 25.5929 18.6369 25.1205ZM26.5865 31.9171C28.2872 31.8896 29.2147 32.2667 29.5007 32.4083C29.9043 32.6081 30.0588 32.8017 30.1 32.8809C29.9985 32.9907 29.5581 33.258 28.4739 33.258C27.668 33.258 26.7539 32.7701 25.81 31.9555C26.0849 31.9331 26.3436 31.921 26.5865 31.9171ZM12.4149 37.3775C11.6121 38.992 10.6399 40.113 9.10258 40.8755C8.76467 41.0432 8.5146 41.1245 8.34092 41.1634C8.63141 40.5309 9.69382 39.1739 12.4149 37.3775Z" fill="#2D2D2D"/>
</svg>

<svg width="38" height="50" fill="none" xmlns="http://www.w3.org/2000/svg"><path d="M4.796.365C2.703.365 1 2.05 1 4.121v41.357c0 2.072 1.703 3.756 3.796 3.756h28.407c2.094 0 3.797-1.684 3.797-3.756V14.242a.935.935 0 00-.265-.652L24.185.653a.951.951 0 00-.683-.288H4.796zm0 1.88h17.046v12.217c0 .52.424.94.948.94h12.315v30.076c0 1.035-.853 1.877-1.901 1.877H4.796c-1.048 0-1.901-.842-1.901-1.877V4.121c0-1.034.853-1.876 1.901-1.876zm18.94.658l10.304 10.62H23.737V2.902zM18.616 14.39a3.125 3.125 0 00-.792.1c-.742.184-1.937.903-1.596 3.651.151 1.214.6 2.76 1.263 4.426a193.31 193.31 0 01-1.145 3.41c-.369 1.076-.75 2.187-1.089 3.234-.272.84-.521 1.635-.757 2.386-.33 1.053-.63 2.006-.923 2.87-5.065 2.853-7.088 5.324-7.212 6.844-.05.618.193 1.154.667 1.472.238.16.58.295 1.055.295.477 0 1.088-.137 1.864-.521 2.734-1.356 4.025-3.599 5.176-6.794a54.863 54.863 0 013.324-1.652c1.969-.901 3.646-1.458 5.054-1.785 1.63 1.697 3.353 2.812 4.97 2.812 1.759 0 3-.577 3.403-1.582.298-.741.07-1.565-.608-2.204-.965-.908-2.681-1.373-4.83-1.312-.713.02-1.467.1-2.255.238-1.785-2.126-3.519-5.078-4.683-7.795 1.193-3.821 1.63-6.318.541-7.49-.272-.293-.722-.594-1.427-.603zm-.014 1.878c.032 0 .048.002.05 0 .033.041.379.543-.243 3.129a11.283 11.283 0 01-.3-1.486c-.14-1.128.061-1.57.174-1.597.161-.04.264-.046.319-.046zm.036 8.852c.98 1.969 2.186 3.948 3.5 5.623a30.231 30.231 0 00-4.481 1.662 62.27 62.27 0 00-1.677.797l.33-1.047c.233-.745.48-1.534.751-2.369.335-1.032.713-2.136 1.079-3.203l.498-1.462zm7.95 6.797c1.7-.027 2.628.35 2.914.491.403.2.558.394.599.473-.102.11-.542.377-1.626.377-.806 0-1.72-.488-2.664-1.303.275-.022.534-.034.777-.038zm-14.172 5.46c-.803 1.615-1.775 2.736-3.312 3.498a3.434 3.434 0 01-.762.288c.29-.632 1.353-1.99 4.074-3.785z" fill="#2D2D2D"/></svg>
